icons/modern/pencil.svg

<svg width="32" height="32" viewBox="0 0 32 32" fill="none" xmlns="http://www.w3.org/2000/svg">
<path d="M23.0368 2.50597C23.6226 1.92019 24.5723 1.92019 25.1581 2.50597L29.5212 6.86903C30.107 7.45481 30.107 8.40456 29.5212 8.99035L9.46387 29.0477L2.9795 22.5633L23.0368 2.50597Z" fill="url(#paint0_radial_18_22247)"/>
<path d="M23.0368 2.50597C23.6226 1.92019 24.5723 1.92019 25.1581 2.50597L29.5212 6.86903C30.107 7.45481 30.107 8.40456 29.5212 8.99035L9.46387 29.0477L2.9795 22.5633L23.0368 2.50597Z" fill="url(#paint1_linear_18_22247)"/>
<path d="M23.0368 2.50597C23.6226 1.92019 24.5723 1.92019 25.1581 2.50597L29.5212 6.86903C30.107 7.45481 30.107 8.40456 29.5212 8.99035L9.46387 29.0477L2.9795 22.5633L23.0368 2.50597Z" fill="url(#paint2_linear_18_22247)"/>
<path d="M23.0368 2.50597C23.6226 1.92019 24.5723 1.92019 25.1581 2.50597L29.5212 6.86903C30.107 7.45481 30.107 8.40456 29.5212 8.99035L9.46387 29.0477L2.9795 22.5633L23.0368 2.50597Z" fill="url(#paint3_radial_18_22247)"/>
<path d="M2.03436 29.7823C2.02253 29.9073 2.12756 30.0122 2.25261 30.0002L8.79374 29.3714C8.98196 29.3533 9.16119 29.2822 9.31064 29.1664L9.46389 29.0476L2.97951 22.5632L2.87895 22.685C2.75153 22.8393 2.67335 23.0283 2.6545 23.2275L2.03436 29.7823Z" fill="url(#paint4_linear_18_22247)"/>
<path d="M2.03436 29.7823C2.02253 29.9073 2.12756 30.0122 2.25261 30.0002L8.79374 29.3714C8.98196 29.3533 9.16119 29.2822 9.31064 29.1664L9.46389 29.0476L2.97951 22.5632L2.87895 22.685C2.75153 22.8393 2.67335 23.0283 2.6545 23.2275L2.03436 29.7823Z" fill="url(#paint5_linear_18_22247)"/>
<path d="M2.03436 29.7823C2.02253 29.9073 2.12756 30.0122 2.25261 30.0002L8.79374 29.3714C8.98196 29.3533 9.16119 29.2822 9.31064 29.1664L9.46389 29.0476L2.97951 22.5632L2.87895 22.685C2.75153 22.8393 2.67335 23.0283 2.6545 23.2275L2.03436 29.7823Z" fill="url(#paint6_linear_18_22247)"/>
<path d="M26.3397 12.1719L29.5212 8.99037C30.107 8.40459 30.107 7.45483 29.5212 6.86905L25.1581 2.50599C24.5723 1.9202 23.6226 1.9202 23.0368 2.50599L19.8553 5.68752L26.3397 12.1719Z" fill="url(#paint7_linear_18_22247)"/>
<path d="M26.3397 12.1719L29.5212 8.99037C30.107 8.40459 30.107 7.45483 29.5212 6.86905L25.1581 2.50599C24.5723 1.9202 23.6226 1.9202 23.0368 2.50599L19.8553 5.68752L26.3397 12.1719Z" fill="url(#paint8_linear_18_22247)"/>
<path d="M26.3397 12.1719L29.5212 8.99037C30.107 8.40459 30.107 7.45483 29.5212 6.86905L25.1581 2.50599C24.5723 1.9202 23.6226 1.9202 23.0368 2.50599L19.8553 5.68752L26.3397 12.1719Z" fill="url(#paint9_radial_18_22247)"/>
<path d="M16.6656 8.87719L19.8553 5.6875L26.3397 12.1719L23.15 15.3615L16.6656 8.87719Z" fill="url(#paint10_linear_18_22247)"/>
<path d="M16.6656 8.87719L19.8553 5.6875L26.3397 12.1719L23.15 15.3615L16.6656 8.87719Z" fill="url(#paint11_linear_18_22247)"/>
<path d="M2.25262 30.0002C2.12756 30.0122 2.02252 29.9073 2.03436 29.7823L2.25189 27.4829L4.54846 29.7795L2.25262 30.0002Z" fill="url(#paint12_linear_18_22247)"/>
<defs>
<radialGradient id="paint0_radial_18_22247" cx="0" cy="0" r="1" gradientUnits="userSpaceOnUse" gradientTransform="translate(6.19904 26) rotate(-45.6437) scale(19.6676 12.1998)">
<stop stop-color="#FF9130"/>
<stop offset="1" stop-color="#F3633D"/>
</radialGradient>
<linearGradient id="paint1_linear_18_22247" x1="10.1365" y1="14.875" x2="11.699" y2="16.375" gradientUnits="userSpaceOnUse">
<stop stop-color="#EE9B6A"/>
<stop offset="1" stop-color="#EE9B6A" stop-opacity="0"/>
</linearGradient>
<linearGradient id="paint2_linear_18_22247" x1="20.6365" y1="18.5" x2="18.7615" y2="16.9375" gradientUnits="userSpaceOnUse">
<stop stop-color="#E66A62"/>
<stop offset="1" stop-color="#E66A62" stop-opacity="0"/>
</linearGradient>
<radialGradient id="paint3_radial_18_22247" cx="0" cy="0" r="1" gradientUnits="userSpaceOnUse" gradientTransform="translate(5.94904 25.8125) rotate(-44.8606) scale(18.1639 4.06177)">
<stop stop-color="#FF994D"/>
<stop offset="1" stop-color="#FF994D" stop-opacity="0"/>
</radialGradient>
<linearGradient id="paint4_linear_18_22247" x1="3.88654" y1="26.0937" x2="6.51154" y2="30.2187" gradientUnits="userSpaceOnUse">
<stop stop-color="#D8A587"/>
<stop offset="1" stop-color="#CE7A98"/>
</linearGradient>
<linearGradient id="paint5_linear_18_22247" x1="6.98029" y1="26.2822" x2="6.45685" y2="26.8124" gradientUnits="userSpaceOnUse">
<stop offset="0.207411" stop-color="#FFC09F"/>
<stop offset="1" stop-color="#FCB196" stop-opacity="0"/>
</linearGradient>
<linearGradient id="paint6_linear_18_22247" x1="1.51154" y1="25.9374" x2="3.63654" y2="26.1249" gradientUnits="userSpaceOnUse">
<stop stop-color="#DEBCA3"/>
<stop offset="1" stop-color="#DEBCA3" stop-opacity="0"/>
</linearGradient>
<linearGradient id="paint7_linear_18_22247" x1="28.074" y1="4.93753" x2="23.949" y2="9.00003" gradientUnits="userSpaceOnUse">
<stop stop-color="#FF6153"/>
<stop offset="1" stop-color="#FF6154"/>
</linearGradient>
<linearGradient id="paint8_linear_18_22247" x1="20.7615" y1="4.56253" x2="24.0115" y2="7.56253" gradientUnits="userSpaceOnUse">
<stop stop-color="#F1553E"/>
<stop offset="1" stop-color="#F1553E" stop-opacity="0"/>
</linearGradient>
<radialGradient id="paint9_radial_18_22247" cx="0" cy="0" r="1" gradientUnits="userSpaceOnUse" gradientTransform="translate(27.2303 5.87503) rotate(135) scale(1.37002 3.11227)">
<stop offset="0.177419" stop-color="#FF786D"/>
<stop offset="1" stop-color="#FF786D" stop-opacity="0"/>
</radialGradient>
<linearGradient id="paint10_linear_18_22247" x1="18.324" y1="7.375" x2="22.449" y2="11.125" gradientUnits="userSpaceOnUse">
<stop stop-color="#C5C4CB"/>
<stop offset="1" stop-color="#E8DEFA"/>
</linearGradient>
<linearGradient id="paint11_linear_18_22247" x1="24.824" y1="14.375" x2="22.5115" y2="12.125" gradientUnits="userSpaceOnUse">
<stop stop-color="#C9B9E0"/>
<stop offset="1" stop-color="#C9B9E0" stop-opacity="0"/>
</linearGradient>
<linearGradient id="paint12_linear_18_22247" x1="2.23029" y1="28.5312" x2="3.29095" y2="30.0011" gradientUnits="userSpaceOnUse">
<stop stop-color="#461E49"/>
<stop offset="1" stop-color="#450F51"/>
</linearGradient>
</defs>
</svg>

<svg width="32" height="32" fill="none" xmlns="http://www.w3.org/2000/svg"><path d="M23.037 2.506a1.5 1.5 0 0 1 2.121 0l4.363 4.363a1.5 1.5 0 0 1 0 2.121L9.464 29.048l-6.485-6.485L23.038 2.506Z" fill="url(#a)"/><path d="M23.037 2.506a1.5 1.5 0 0 1 2.121 0l4.363 4.363a1.5 1.5 0 0 1 0 2.121L9.464 29.048l-6.485-6.485L23.038 2.506Z" fill="url(#b)"/><path d="M23.037 2.506a1.5 1.5 0 0 1 2.121 0l4.363 4.363a1.5 1.5 0 0 1 0 2.121L9.464 29.048l-6.485-6.485L23.038 2.506Z" fill="url(#c)"/><path d="M23.037 2.506a1.5 1.5 0 0 1 2.121 0l4.363 4.363a1.5 1.5 0 0 1 0 2.121L9.464 29.048l-6.485-6.485L23.038 2.506Z" fill="url(#d)"/><path d="M2.034 29.782a.2.2 0 0 0 .219.218l6.54-.629a1 1 0 0 0 .518-.205l.153-.118-6.484-6.485-.101.122a1 1 0 0 0-.224.543l-.62 6.554Z" fill="url(#e)"/><path d="M2.034 29.782a.2.2 0 0 0 .219.218l6.54-.629a1 1 0 0 0 .518-.205l.153-.118-6.484-6.485-.101.122a1 1 0 0 0-.224.543l-.62 6.554Z" fill="url(#f)"/><path d="M2.034 29.782a.2.2 0 0 0 .219.218l6.54-.629a1 1 0 0 0 .518-.205l.153-.118-6.484-6.485-.101.122a1 1 0 0 0-.224.543l-.62 6.554Z" fill="url(#g)"/><path d="M26.34 12.172 29.52 8.99a1.5 1.5 0 0 0 0-2.121l-4.363-4.363a1.5 1.5 0 0 0-2.121 0l-3.182 3.182 6.485 6.484Z" fill="url(#h)"/><path d="M26.34 12.172 29.52 8.99a1.5 1.5 0 0 0 0-2.121l-4.363-4.363a1.5 1.5 0 0 0-2.121 0l-3.182 3.182 6.485 6.484Z" fill="url(#i)"/><path d="M26.34 12.172 29.52 8.99a1.5 1.5 0 0 0 0-2.121l-4.363-4.363a1.5 1.5 0 0 0-2.121 0l-3.182 3.182 6.485 6.484Z" fill="url(#j)"/><path d="m16.666 8.877 3.19-3.19 6.484 6.485-3.19 3.19-6.484-6.485Z" fill="url(#k)"/><path d="m16.666 8.877 3.19-3.19 6.484 6.485-3.19 3.19-6.484-6.485Z" fill="url(#l)"/><path d="M2.253 30a.2.2 0 0 1-.219-.218l.218-2.3 2.296 2.297L2.253 30Z" fill="url(#m)"/><defs><linearGradient id="b" x1="10.136" y1="14.875" x2="11.699" y2="16.375" gradientUnits="userSpaceOnUse"><stop stop-color="#EE9B6A"/><stop offset="1" stop-color="#EE9B6A" stop-opacity="0"/></linearGradient><linearGradient id="c" x1="20.637" y1="18.5" x2="18.762" y2="16.938" gradientUnits="userSpaceOnUse"><stop stop-color="#E66A62"/><stop offset="1" stop-color="#E66A62" stop-opacity="0"/></linearGradient><linearGradient id="e" x1="3.887" y1="26.094" x2="6.512" y2="30.219" gradientUnits="userSpaceOnUse"><stop stop-color="#D8A587"/><stop offset="1" stop-color="#CE7A98"/></linearGradient><linearGradient id="f" x1="6.98" y1="26.282" x2="6.457" y2="26.812" gradientUnits="userSpaceOnUse"><stop offset=".207" stop-color="#FFC09F"/><stop offset="1" stop-color="#FCB196" stop-opacity="0"/></linearGradient><linearGradient id="g" x1="1.512" y1="25.937" x2="3.637" y2="26.125" gradientUnits="userSpaceOnUse"><stop stop-color="#DEBCA3"/><stop offset="1" stop-color="#DEBCA3" stop-opacity="0"/></linearGradient><linearGradient id="h" x1="28.074" y1="4.938" x2="23.949" y2="9" gradientUnits="userSpaceOnUse"><stop stop-color="#FF6153"/><stop offset="1" stop-color="#FF6154"/></linearGradient><linearGradient id="i" x1="20.762" y1="4.563" x2="24.012" y2="7.563" gradientUnits="userSpaceOnUse"><stop stop-color="#F1553E"/><stop offset="1" stop-color="#F1553E" stop-opacity="0"/></linearGradient><linearGradient id="k" x1="18.324" y1="7.375" x2="22.449" y2="11.125" gradientUnits="userSpaceOnUse"><stop stop-color="#C5C4CB"/><stop offset="1" stop-color="#E8DEFA"/></linearGradient><linearGradient id="l" x1="24.824" y1="14.375" x2="22.512" y2="12.125" gradientUnits="userSpaceOnUse"><stop stop-color="#C9B9E0"/><stop offset="1" stop-color="#C9B9E0" stop-opacity="0"/></linearGradient><linearGradient id="m" x1="2.23" y1="28.531" x2="3.291" y2="30.001" gradientUnits="userSpaceOnUse"><stop stop-color="#461E49"/><stop offset="1" stop-color="#450F51"/></linearGradient><radialGradient id="a" cx="0" cy="0" r="1" gradientUnits="userSpaceOnUse" gradientTransform="matrix(13.74998 -14.06245 8.72293 8.5291 6.199 26)"><stop stop-color="#FF9130"/><stop offset="1" stop-color="#F3633D"/></radialGradient><radialGradient id="d" cx="0" cy="0" r="1" gradientUnits="userSpaceOnUse" gradientTransform="matrix(12.87503 -12.81253 2.8651 2.87908 5.949 25.813)"><stop stop-color="#FF994D"/><stop offset="1" stop-color="#FF994D" stop-opacity="0"/></radialGradient><radialGradient id="j" cx="0" cy="0" r="1" gradientUnits="userSpaceOnUse" gradientTransform="rotate(135 12.398 8.577) scale(1.37002 3.11227)"><stop offset=".177" stop-color="#FF786D"/><stop offset="1" stop-color="#FF786D" stop-opacity="0"/></radialGradient></defs></svg>
